!!!OTL: Prince Edward Island Murder
!!!ONM: 140.
**kern
*clefG2
*k[b-e-]
*B-:
*M4/4
*MM84
{4f
=1
4.b-
8d
4e-
4f
=2
8g
4.f
4d
4B-
=3
8d
4.c
4B-
4A
=4
4.B-
8r
4r}
{4f
=5
8d
4.f
4b-
4cc
=6
4.dd
8b-
4.dd
8cc
=7
4b-
4b-
4f
4g
=8
4.f
8r
4r}
{4f
=9
4d
4f
4.b-
8cc
=10
8dd
4.b-
4dd
8b-
8b-
=11
8b-
4.f
8b-
4.cc
=12
4.b-
8r
2r}
=13
{4.b-
8d
4e-
4f
=14
8g
4.f
4.e-
8c
=15
8d
4.c
4B-
4A
=16
2.B-}
==
*-
!!!CNT: Folksongs of Maritime Canada
!!!MRD: 1928///-1932///
!!!OCL: Helen Creighton
!!!YOR: Songs and Ballads from Nova Scotia
!!!PPR: J.M. Dent & Sons, Limited
!!!PPP: Toronto, Canada
!!!PDT: 1932///
!!!reprint: Dover Publications, 1992: ISBN 0-486-21703-5
!!!ENC1: Craig Stuart Sapp (music and bibliographic data)                       
!!!ENC2: Marcus Pearce (phrase markings and key designations)                   
!!!ENC3: Darrell Conklin (phrase markings and key designations)   
!!!END: 2002/04/10/
!!!EEV: 2004/06/05
!!!MPN: Mr. Ben Henneberry
!!!PPG: 306
!!!EFL: 142/152
!!!ARE: Canada; Nova Scotia
!!!verses: 13
!!!VTS: 3664671668
